build/img/svg/transport-icon2.svg

<svg width="46" height="48" viewBox="0 0 46 48" fill="none" xmlns="http://www.w3.org/2000/svg">
<path d="M45 5H1V44H45V5Z" stroke-width="2" stroke-miterlimit="10" stroke-linejoin="round"/>
<path d="M28.6408 27.2771L17 19V33.0305C17.0083 33.4548 17.3482 33.6014 17.6972 33.2721L20.9515 30.1936L24.0971 35.6117C24.3622 36.0339 24.9839 36.1259 25.4863 35.818L26.8022 35.0099C27.2947 34.7071 27.4896 34.1303 27.2426 33.7082L24.2142 28.5921H28.1778C29.0865 28.5766 29.2437 27.6558 28.6408 27.2771Z" stroke-width="2" stroke-miterlimit="10" stroke-linecap="round" stroke-linejoin="round"/>
<path d="M3 11H43" stroke-width="2" stroke-miterlimit="10" stroke-linejoin="round"/>
<path d="M4 8H6" stroke-width="2" stroke-miterlimit="10" stroke-linejoin="round"/>
<path d="M7 8H9" stroke-width="2" stroke-miterlimit="10" stroke-linejoin="round"/>
<path d="M10 8H12" stroke-width="2" stroke-miterlimit="10" stroke-linejoin="round"/>
</svg>

<svg width="46" height="48" fill="none" xmlns="http://www.w3.org/2000/svg"><path d="M45 5H1v39h44V5z"/><path d="M28.64 27.277L17 19v14.03c.008.425.348.571.697.242l3.255-3.078 3.145 5.418c.265.422.887.514 1.39.206l1.315-.808c.493-.303.688-.88.44-1.302l-3.028-5.116h3.964c.909-.015 1.066-.936.463-1.315zM3 11h40M4 8h2m1 0h2m1 0h2"/></svg>
